X: 35
T:BRANLE
M:4/4
L:1/8
Q:160
C:BORJON trait de la musette 1672
K:C
"A"c2g2f2d2|e2c2d2d2|g4f2g2|cdefd4|c2g2f2d2|e2c2d2d2|g4f2g2|cdefd4|"B"GA
Bcd2d2
|d2efg2g2|c2c2B2Bc|dcBAG4|GABcd2d2|d2efg2g2|f2f2e2fe|dcdBc4:|
